icons/vwo.svg

<?xml version="1.0" encoding="UTF-8"?>
<svg width="512px" height="170px" viewBox="0 0 512 170" version="1.1" xmlns="http://www.w3.org/2000/svg" xmlns:xlink="http://www.w3.org/1999/xlink" preserveAspectRatio="xMidYMid">
    <g>
        <path d="M427.708635,0 C424.563543,0 420.790115,0 417.645023,0.626628033 L399.404513,32.5556314 C407.581411,27.546022 417.645023,25.0429247 427.708635,25.0429247 C460.416228,25.0429247 487.461972,51.9623186 487.461972,84.51795 C487.461972,117.073581 460.416228,143.992975 427.708635,143.992975 C395.001042,143.992975 368.583634,117.698502 367.955298,85.144578 L349.086452,117.073581 C361.665114,147.749329 392.485993,169.0359 427.0803,169.0359 C473.624932,169.0359 511.992667,130.845739 511.992667,84.51795 C512.62271,38.1901614 474.253268,0 427.708635,0 Z" fill="#BF3078"></path>
        <path d="M171.083113,88.2743033 L185.550195,63.2313786 L218.257788,118.951758 L255.99548,54.4671233 L293.733171,118.951758 L358.520022,9.39088333 C361.665114,3.75635333 367.955298,0 374.873818,0 L393.114328,0 L293.734879,169.0359 L255.997187,104.551265 L218.257788,169.0359 L171.083113,88.2743033 L171.083113,88.2743033 Z" fill="#802050"></path>
        <path d="M198.130564,0 L98.7511143,169.0359 L0,0 L18.2405103,0 C25.1590302,0 31.4492146,3.75635333 34.5943068,9.39088333 L98.7511143,119.576679 L163.536257,9.39088333 C166.681349,3.75635333 172.969826,0 179.890054,0 L198.130564,0 Z" fill="#26134D"></path>
    </g>
</svg>

<svg xmlns="http://www.w3.org/2000/svg" viewBox="0 0 512 169.036">
  <path fill="#bf3078" d="M427.709 0c-3.145 0-6.919 0-10.064.627l-18.24 31.929c8.176-5.01 18.24-7.513 28.304-7.513 32.707 0 59.753 26.92 59.753 59.475 0 32.556-27.046 59.475-59.753 59.475-32.708 0-59.125-26.294-59.754-58.848l-18.869 31.929c12.58 30.675 43.4 51.962 77.994 51.962 46.545 0 84.913-38.19 84.913-84.518C512.623 38.19 474.253 0 427.709 0z"/>
  <path fill="#802050" d="m171.083 88.274 14.467-25.043 32.708 55.72 37.737-64.484 37.738 64.485L358.52 9.39C361.665 3.756 367.955 0 374.874 0h18.24l-99.38 169.036-37.737-64.485-37.74 64.485z"/>
  <path fill="#26134d" d="M198.13 0 98.752 169.036 0 0h18.24c6.919 0 13.21 3.756 16.354 9.39l64.157 110.187L163.536 9.39C166.681 3.756 172.97 0 179.89 0z"/>
</svg>
